public/images/vika/g_03.svg

<svg fill="none" height="465" viewBox="0 0 800 465" width="800" xmlns="http://www.w3.org/2000/svg" xmlns:xlink="http://www.w3.org/1999/xlink"><clipPath id="a"><path d="m0 0h800v465h-800z"/></clipPath><g clip-path="url(#a)"><path d="m0 0h800v465h-800z" fill="#001d3d"/><g clip-rule="evenodd" fill-rule="evenodd" stroke="#fff"><path d="m349.675 401.174-1.546 25.615v-7.767l-20.143-1.079 2.26-21.395z" fill="#001d3d" stroke-width=".595906"/><path d="m404.445 398.749 3.003 23.63 12.95.863 1.481-16.972z" fill="#001d3d" stroke-width=".595906"/><path d="m400.882 450.557 6.565-28.178 12.951.863s18.955 11.198 32.208 19.388c-7.593-3.128-13.431 7.798-13.431 7.798z" fill="#fff" stroke-width=".595906"/><path d="m400.882 450.557 38.293-.129s5.838-10.926 13.431-7.798c5.519 3.379 10.047 6.253 11.822 7.582 6.043 4.531 2.59 10.788 2.59 10.788l-67.988-2.494z" fill="#001d3d" stroke-width=".595906"/><path d="m327.986 417.943 20.143 1.079v7.767s-.358 5.394 2.879 10.788c2.429 4.048 3.894 13.554 4.476 18.055l.289 2.442s-6.923-19.345-22.886-16.324c-6.386 1.208-9.289 8.63-9.289 8.63l-11.085 2.46-2.513 5.666z" fill="#fff" stroke-width=".595906"/><path d="m310 458.506 2.513-5.666 11.085-2.46s2.903-7.422 9.289-8.63c13.967-2.645 21.014 11.837 22.558 15.5l.328.824z" fill="#001d3d" stroke-width=".595906"/><path d="m394.75 394.572 29.354 12.656 5.595-155.244-39.625-13.354z" fill="#001d3d" stroke-width=".634948"/><path d="m345.585 266.604-5.424-3.148.396 20.764 2.272 2.649z" fill="#001d3d" stroke-width=".595906"/><path d="m351.173 225.521 38.901 13.109-25.684 157.918-8.617 6.076-27.787-6.615z" fill="#001d3d" stroke-width=".634948"/><path d="m403.774 103.521c20.053 4.683 30.673 16.417 30.673 16.417l-4.748 132.046-79.948-26.463 6.421-59.985-10.471-54.033c19.908-9.237 36.72-11.011 50.169-9.387l.024.699-.024.183.046.455.002.021c.217 1.811 1.766 3.21 3.639 3.21 1.906 0 3.476-1.448 3.649-3.305l.451.115z" fill="#001d3d" stroke-width=".634948"/><path d="m398.671 241.527 4.713 28.52 26.928-10.042-.613-8.021z" fill="#001d3d" stroke-width=".634948"/><path d="m390.074 238.63-1.798 42.378-40.147-39.481 1.622-16.006z" fill="#001d3d" stroke-width=".634948"/><path d="m345.701 111.716 10.072 54.359-10.174 100.426-6.733-3.908.432-144.417s.536-7.277 6.403-6.46z" fill="#001d3d" stroke-width=".634948"/><path d="m458.475 208.914 9.254 75.517-39.474 12.104 2.89-84.767z" fill="#fff" stroke-width=".634948"/><path d="m422.062 110.644 9.811 80.88 2.574-71.585s-8.992-7.677-12.385-9.295z" fill="#fff" stroke-width=".634948"/><path d="m451.865 263.286 6.61 14.384-26.502-1.726-.828-13.521z" fill="#001d3d" stroke-width=".671935"/><path d="m448.714 277.034v16.912l-4.627 2.589-.73-19.849z" fill="#001d3d" stroke-width=".634948"/><path d="m437.735 276.319.77 19.115h5.542l-.69-18.748z" fill="#001d3d" stroke-width=".634948"/><path d="m431.973 275.944-.828 12.737 6.975-2.804-.37-9.191z" fill="#001d3d" stroke-width=".634948"/><path d="m453.951 277.376-3.186 13.894h-2.051v-14.236z" fill="#001d3d" stroke-width=".634948"/><path d="m434.448 119.939s3.604-.781 4.899.945 20.936 69.259 18.993 83.284c-1.942 14.024-6.475 59.118-6.475 59.118l-20.72-.863-1.446-10.439z" fill="#001d3d" stroke-width=".634948"/><path d="m386.252 104.342 8.777-7.6235 2.59 21.4325-7.545 3.308z" fill="#001d3d" stroke-width=".595906"/><path d="m409.85 96.7185 1.87 14.9335-7.05 8.11-1.644-16.44z" fill="#001d3d" stroke-width=".595906"/><path d="m395.87 102.116v-.004c.553-2.114 3.173-9.1521 4.632-12.9982 2.872 1.5155 6.068 2.5541 9.464 3.0116l.423.2779-6.73 11.0827-.002.007-.451-.114c-.173 1.856-1.743 3.305-3.648 3.305-1.881 0-3.435-1.41-3.642-3.232l-.022-.637.09-.687z" stroke-width=".671935"/><path d="m444.383 111.75-30.396-15.0314-1.223-4.3441 1.223.0289c15.307 0 27.734-11.6015 27.734-25.8913zm-11.944-78.4461c-1.876 4.7955-12.229 17.0982-12.229 17.0982s-40.757-3.4125-28.274 26.7543c4.609 11.1393 8.849 15.247 8.849 15.247l-5.431 7.0092-12.843-2.694s-.72-26.035-1.007-31.6448c-.288-5.6098 3.453-3.5959 4.748-9.7813 1.295-6.185 7.194-28.3363 19.137-29.1993 11.943-.8631 23.742 4.5322 26.908 5.3586l.038-.0069c.799-.1437 13.64-2.3449 16.149 3.926 2.59 6.4728 2.59 19.85 1.511 21.5761-1.079 1.726-15.547 2.3733-15.547 2.3733zm9.141 33.2915c-.04.0263-.087.0586-.142.0966.03-.0211.057-.0397.082-.0565l.032-.0216c.009-.006.018-.0125.028-.0185zm.088-.057-.039.0246.067-.0414z" fill="#fff" stroke-width=".671935"/><path d="m409.887 92.1146c-3.367-.4647-6.536-1.4956-9.385-3.0008l-.05-.0259c-8.476-4.4175-14.2-12.8774-14.2-22.5759 0-14.2898 21.061-35.5569 36.368-35.5569 14.828 0 18.32 20.5525 19.065 34.2257l.036 1.3312-.036 1.3317c-.745 13.6732-12.87 24.5596-27.698 24.5596l-1.222-.0289-.173-.0073-2.626-.2417z" stroke-width=".671935"/></g></g></svg>

<svg width="800" height="465" viewBox="0 0 800 465" fill="none" xmlns="http://www.w3.org/2000/svg">
<g clip-path="url(#clip0_631_1288)">
<rect width="800" height="465" fill="#001D3D"/>
<path fill-rule="evenodd" clip-rule="evenodd" d="M349.675 401.174L348.129 426.789V419.022L327.986 417.943L330.246 396.548L349.675 401.174Z" fill="#001D3D" stroke="white" stroke-width="0.595906"/>
<path fill-rule="evenodd" clip-rule="evenodd" d="M404.445 398.749L407.448 422.379L420.398 423.242L421.879 406.27L404.445 398.749Z" fill="#001D3D" stroke="white" stroke-width="0.595906"/>
<path fill-rule="evenodd" clip-rule="evenodd" d="M400.882 450.557L407.447 422.379L420.398 423.242C420.398 423.242 439.353 434.44 452.606 442.63C445.013 439.502 439.175 450.428 439.175 450.428L400.882 450.557Z" fill="white" stroke="white" stroke-width="0.595906"/>
<path fill-rule="evenodd" clip-rule="evenodd" d="M400.882 450.557L439.175 450.428C439.175 450.428 445.013 439.502 452.606 442.63C458.125 446.009 462.653 448.883 464.428 450.212C470.471 454.743 467.018 461 467.018 461L399.03 458.506L400.882 450.557Z" fill="#001D3D" stroke="white" stroke-width="0.595906"/>
<path fill-rule="evenodd" clip-rule="evenodd" d="M327.986 417.943L348.129 419.022V426.789C348.129 426.789 347.771 432.183 351.008 437.577C353.437 441.625 354.902 451.131 355.484 455.632L355.773 458.074C355.773 458.074 348.85 438.729 332.887 441.75C326.501 442.958 323.598 450.38 323.598 450.38L312.513 452.84L310 458.506L327.986 417.943Z" fill="white" stroke="white" stroke-width="0.595906"/>
<path fill-rule="evenodd" clip-rule="evenodd" d="M310 458.506L312.513 452.84L323.598 450.38C323.598 450.38 326.501 442.958 332.887 441.75C346.854 439.105 353.901 453.587 355.445 457.25L355.773 458.074L310 458.506Z" fill="#001D3D" stroke="white" stroke-width="0.595906"/>
<path fill-rule="evenodd" clip-rule="evenodd" d="M394.75 394.572L424.104 407.228L429.699 251.984L390.074 238.63L394.75 394.572Z" fill="#001D3D" stroke="white" stroke-width="0.634948"/>
<path fill-rule="evenodd" clip-rule="evenodd" d="M345.585 266.604L340.161 263.456L340.557 284.22L342.829 286.869L345.585 266.604Z" fill="#001D3D" stroke="white" stroke-width="0.595906"/>
<path fill-rule="evenodd" clip-rule="evenodd" d="M351.173 225.521L390.074 238.63L364.39 396.548L355.773 402.624L327.986 396.009L351.173 225.521Z" fill="#001D3D" stroke="white" stroke-width="0.634948"/>
<path fill-rule="evenodd" clip-rule="evenodd" d="M403.774 103.521C423.827 108.204 434.447 119.938 434.447 119.938L429.699 251.984L349.751 225.521L356.172 165.536L345.701 111.503C365.609 102.266 382.421 100.492 395.87 102.116L395.894 102.815L395.87 102.998L395.916 103.453L395.918 103.474C396.135 105.285 397.684 106.684 399.557 106.684C401.463 106.684 403.033 105.236 403.206 103.379L403.657 103.494L403.774 103.521Z" fill="#001D3D" stroke="white" stroke-width="0.634948"/>
<path fill-rule="evenodd" clip-rule="evenodd" d="M398.671 241.527L403.384 270.047L430.312 260.005L429.699 251.984L398.671 241.527Z" fill="#001D3D" stroke="white" stroke-width="0.634948"/>
<path fill-rule="evenodd" clip-rule="evenodd" d="M390.074 238.63L388.276 281.008L348.129 241.527L349.751 225.521L390.074 238.63Z" fill="#001D3D" stroke="white" stroke-width="0.634948"/>
<path fill-rule="evenodd" clip-rule="evenodd" d="M345.701 111.716L355.773 166.075L345.599 266.501L338.866 262.593L339.298 118.176C339.298 118.176 339.834 110.899 345.701 111.716Z" fill="#001D3D" stroke="white" stroke-width="0.634948"/>
<path fill-rule="evenodd" clip-rule="evenodd" d="M458.475 208.914L467.729 284.431L428.255 296.535L431.145 211.768L458.475 208.914Z" fill="white" stroke="white" stroke-width="0.634948"/>
<path fill-rule="evenodd" clip-rule="evenodd" d="M422.062 110.644L431.873 191.524L434.447 119.939C434.447 119.939 425.455 112.262 422.062 110.644Z" fill="white" stroke="white" stroke-width="0.634948"/>
<path fill-rule="evenodd" clip-rule="evenodd" d="M451.865 263.286L458.475 277.67L431.973 275.944L431.145 262.423L451.865 263.286Z" fill="#001D3D" stroke="white" stroke-width="0.671935"/>
<path fill-rule="evenodd" clip-rule="evenodd" d="M448.714 277.034V293.946L444.087 296.535L443.357 276.686L448.714 277.034Z" fill="#001D3D" stroke="white" stroke-width="0.634948"/>
<path fill-rule="evenodd" clip-rule="evenodd" d="M437.735 276.319L438.505 295.434H444.047L443.357 276.686L437.735 276.319Z" fill="#001D3D" stroke="white" stroke-width="0.634948"/>
<path fill-rule="evenodd" clip-rule="evenodd" d="M431.973 275.944L431.145 288.681L438.12 285.877L437.75 276.686L431.973 275.944Z" fill="#001D3D" stroke="white" stroke-width="0.634948"/>
<path fill-rule="evenodd" clip-rule="evenodd" d="M453.951 277.376L450.765 291.27H448.714V277.034L453.951 277.376Z" fill="#001D3D" stroke="white" stroke-width="0.634948"/>
<path fill-rule="evenodd" clip-rule="evenodd" d="M434.448 119.939C434.448 119.939 438.052 119.158 439.347 120.884C440.642 122.61 460.283 190.143 458.34 204.168C456.398 218.192 451.865 263.286 451.865 263.286L431.145 262.423L429.699 251.984L434.448 119.939Z" fill="#001D3D" stroke="white" stroke-width="0.634948"/>
<path fill-rule="evenodd" clip-rule="evenodd" d="M386.252 104.342L395.029 96.7185L397.619 118.151L390.074 121.459L386.252 104.342Z" fill="#001D3D" stroke="white" stroke-width="0.595906"/>
<path fill-rule="evenodd" clip-rule="evenodd" d="M409.85 96.7185L411.72 111.652L404.67 119.762L403.026 103.322L409.85 96.7185Z" fill="#001D3D" stroke="white" stroke-width="0.595906"/>
<path fill-rule="evenodd" clip-rule="evenodd" d="M395.87 102.116V102.112C396.423 99.998 399.043 92.9599 400.502 89.1138C403.374 90.6293 406.57 91.6679 409.966 92.1254L410.389 92.4033L403.659 103.486L403.657 103.493L403.206 103.379C403.033 105.235 401.463 106.684 399.558 106.684C397.677 106.684 396.123 105.274 395.916 103.452L395.894 102.815L395.984 102.128L395.87 102.116Z" stroke="white" stroke-width="0.671935"/>
<path fill-rule="evenodd" clip-rule="evenodd" d="M444.383 111.75L413.987 96.7186L412.764 92.3745L413.987 92.4034C429.294 92.4034 441.721 80.8019 441.721 66.5121L444.383 111.75ZM432.439 33.3039C430.563 38.0994 420.21 50.4021 420.21 50.4021C420.21 50.4021 379.453 46.9896 391.936 77.1564C396.545 88.2957 400.785 92.4034 400.785 92.4034L395.354 99.4126L382.511 96.7186C382.511 96.7186 381.791 70.6836 381.504 65.0738C381.216 59.464 384.957 61.4779 386.252 55.2925C387.547 49.1075 393.446 26.9562 405.389 26.0932C417.332 25.2301 429.131 30.6254 432.297 31.4518L432.335 31.4449C433.134 31.3012 445.975 29.1 448.484 35.3709C451.074 41.8437 451.074 55.2209 449.995 56.947C448.916 58.673 434.448 59.3203 434.448 59.3203L432.439 33.3039ZM441.58 66.5954C441.54 66.6217 441.493 66.654 441.438 66.692C441.468 66.6709 441.495 66.6523 441.52 66.6355L441.552 66.6139C441.561 66.6079 441.57 66.6014 441.58 66.5954ZM441.668 66.5384L441.629 66.563L441.696 66.5216L441.668 66.5384Z" fill="white" stroke="white" stroke-width="0.671935"/>
<path fill-rule="evenodd" clip-rule="evenodd" d="M409.887 92.1146C406.52 91.6499 403.351 90.619 400.502 89.1138L400.452 89.0879C391.976 84.6704 386.252 76.2105 386.252 66.512C386.252 52.2222 407.313 30.9551 422.62 30.9551C437.448 30.9551 440.94 51.5076 441.685 65.1808L441.721 66.512L441.685 67.8437C440.94 81.5169 428.815 92.4033 413.987 92.4033L412.765 92.3744L412.592 92.3671L409.966 92.1254L409.887 92.1146Z" stroke="white" stroke-width="0.671935"/>
</g>
<defs>
<clipPath id="clip0_631_1288">
<rect width="800" height="465" fill="white"/>
</clipPath>
</defs>
</svg>
